icons/markdown-light.svg

<svg width="256" height="256" viewBox="0 0 256 256" fill="none" xmlns="http://www.w3.org/2000/svg">
<rect width="256" height="256" rx="60" fill="#F4F2ED" />
<path d="M212.572 188.269H45.0118C37.4221 188.269 31 181.848 31 174.257V82.0118C31 74.4221 37.4221 68 45.0118 68H211.988C219.578 68 226 74.4221 226 82.0118V174.257C226 181.847 220.161 188.269 212.572 188.269ZM45.0118 77.341C42.6764 77.341 40.341 79.6764 40.341 82.0118V174.257C40.341 177.176 42.6764 178.928 45.0118 178.928H211.988C214.907 178.928 216.659 176.593 216.659 174.257V82.0118C216.659 79.0929 214.324 77.341 211.988 77.341H45.0118ZM59.0236 160.246V96.0236H77.7063L96.389 119.378L115.072 96.0236H133.754V160.246H115.072V123.464L96.389 146.818L77.7063 123.464V160.246H59.0236ZM176.374 160.246L148.35 129.302H167.033V96.0236H185.716V128.719H204.398L176.374 160.246Z" fill="#282828"/>
</svg>

<svg xmlns="http://www.w3.org/2000/svg" width="256" height="256" fill="none"><rect width="256" height="256" fill="#F4F2ED" rx="60"/><path fill="#282828" d="M212.572 188.269H45.012c-7.59 0-14.012-6.421-14.012-14.012V82.012C31 74.422 37.422 68 45.012 68h166.976C219.578 68 226 74.422 226 82.012v92.245c0 7.59-5.839 14.012-13.428 14.012M45.012 77.341c-2.336 0-4.671 2.335-4.671 4.67v92.246c0 2.919 2.335 4.671 4.67 4.671h166.977c2.919 0 4.671-2.335 4.671-4.671V82.012c0-2.92-2.335-4.671-4.671-4.671zm14.012 82.905V96.024h18.682l18.683 23.354 18.683-23.354h18.682v64.222h-18.682v-36.782l-18.683 23.354-18.683-23.354v36.782zm117.35 0-28.024-30.944h18.683V96.024h18.683v32.695h18.682z"/></svg>
